X: 160
T:Robert the Minnow
M:C
L:1/8
C:Johnny Cunnigham
S:Relativity Gathering Pace
R:Reel
K:G
dc || BDGA BDGA | (3Bcd (3Bcd  ed^cd | BDGA BDGB | ~A3 F FGAc  | 
BDGA BDGA | (3Bcd (3Bcd ed (3Bcd |  gfgb agef |1 gfge dBAc :|2 gfge dega || 
|be (3eee edBe | be (3eee gfga | be (3eee edBe | gabg a2 ga |
be (3eee edBe | be (3eee gfga | bg (3agf gfed|1 efge dega :|2efge dBAc ||
